svgs/thin/h2.svg

<svg xmlns="http://www.w3.org/2000/svg" viewBox="0 0 640 512"><!--! Font Awesome Pro 6.3.0 by @fontawesome - https://fontawesome.com License - https://fontawesome.com/license (Commercial License) Copyright 2023 Fonticons, Inc. --><path d="M632 432h-227.4l172.7-157.7c24.56-20.81 39.45-49.69 41.92-81.22c2.469-31.34-7.625-61.91-28.41-86.03c-44.31-51.44-122.7-57.53-174.7-13.47l-29.27 24.67c-3.375 2.844-3.828 8.016-.9844 11.39c2.859 3.406 7.938 3.844 11.28 .9375l29.31-24.81c45.31-38.34 113.6-33.13 152.2 11.72c17.97 20.88 26.7 47.28 24.58 74.34c-2.125 27.25-15.03 52.22-36.53 70.47l-188.1 171.8c-2.438 2.219-3.266 5.719-2.062 8.812C377.7 445.1 380.7 448 384 448h248c4.422 0 8-3.594 8-8S636.4 432 632 432zM312 64C307.6 64 304 67.59 304 72V240h-288V72C16 67.59 12.42 64 8 64S0 67.59 0 72v368C0 444.4 3.578 448 8 448s8-3.594 8-8V256h288v184C304 444.4 307.6 448 312 448S320 444.4 320 440V72C320 67.59 316.4 64 312 64z"/></svg>

<svg xmlns="http://www.w3.org/2000/svg" viewBox="0 0 640 512"><!-- Font Awesome Pro 6.0.0-alpha2 by @fontawesome - https://fontawesome.com License - https://fontawesome.com/license (Commercial License) --><path d="M632 432H404.625L577.297 274.344C601.859 253.531 616.75 224.656 619.219 193.125C621.687 161.781 611.594 131.219 590.812 107.094C546.5 55.656 468.125 49.562 416.141 93.625L386.828 118.438C383.453 121.281 383.047 126.313 385.891 129.688C388.75 133.094 393.828 133.531 397.172 130.625L426.484 105.813C471.797 67.469 540.078 72.688 578.688 117.531C596.656 138.406 605.391 164.813 603.266 191.875C601.141 219.125 588.234 244.094 566.734 262.344L378.609 434.094C376.172 436.312 375.344 439.812 376.547 442.906C377.734 445.969 380.703 448 384 448H632C636.422 448 640 444.406 640 440S636.422 432 632 432ZM312 64C307.578 64 304 67.594 304 72V240H16V72C16 67.594 12.422 64 8 64S0 67.594 0 72V440C0 444.406 3.578 448 8 448S16 444.406 16 440V256H304V440C304 444.406 307.578 448 312 448S320 444.406 320 440V72C320 67.594 316.422 64 312 64Z"/></svg>
